X:1
T:Rachie, 65.65 D refrain
T:Rachie, 65.65 D refrain
T:Caradog Roberts (1897-1935)
T:Public Domain Courtesy of the Cyber Hymnal™
C:Caradog Roberts (1897-1935)
Z:Public Domain
Z:Courtesy of the Cyber Hymnal™
%%score ( 1 2 ) ( 3 4 )
L:1/8
Q:1/4=112
M:4/4
K:G
V:1 treble 
V:2 treble 
V:3 bass 
V:4 bass 
V:1
 D2"^Allegro" [DG]2 [CE]2 [EA]2 | [DG]4 [DF]4 | [DF]2 [FB]2 [EG]2 [Gc]2 | ([GB]4 [FA]4) | %4
 [DA]2 [Dd]2 [Dd]2 [Fc]2 | [FA]2 c2 [Ac]2 [GB]2 | [FA]4 B4 | [FA]8 | [GB]2 [FA]2 [EG]2 [EA]2 | %9
 [EG]4 [^DF]4 | [EG]2 [DF]2 [DF]2 [^CE]2 | D8 | D2 [DG]2 [CE]2 [EA]2 | [DF]2 [FB]2 [EG]2 [Ac]2 | %14
 B4 z2 z2 F2 | G8 | B2 B2 [^DB]3 [EB] | B4 B4 | d2 d2 [Fd]3 [Gd] | d8 | [Ge]3 [Ge] [Gd]2 G2 | %21
 [Gc]2 [Ad]2 [GB]2 [EA]2 | B4 z2 z2 x4 | G8 |] %24
V:2
 D2 x6 | x8 | x8 | x8 | x8 | x2 (GA) x4 | x4 (E2 G2) | x8 | x8 | x8 | x8 | x8 | x8 | x8 | %14
 A2 G4 A4 | G8 | x8 | F2 A2 (GF) E2 | x8 | (A2 c2) (BA G2) | x8 | x8 | (D2 G4 A4 F2) | G8 |] %24
V:3
 [B,,G,]2 [G,,B,]2 [C,A,]2 [A,,C]2 | [D,B,]4 [D,A,]4 | [D,A,]2 [B,,D]2 [E,B,]2 [C,E]2 | [D,D]8 | %4
 [D,F,]2 [E,G,]2 [F,A,]2 [D,A,]2 | [D,D]2 D2 [G,D]4 | [A,D]4 [A,,^C]4 | [D,D]8 | %8
 [G,D]2 [D,C]2 [E,B,]2 [A,,C]2 | [B,,B,]4 [B,,B,]4 | [E,B,]2 ([F,A,][G,B,]) A,2 [A,,G,]2 | %11
 [D,F,]8 | [B,,G,]2 [G,,B,]2 [C,A,]2 [A,,C]2 | [D,A,]2 [B,,D]2 [E,B,]2 [C,E]2 | D6 z2 C2 | %15
 [G,B,]8 | B,2 B,2 [B,,B,]3 [^C,B,] | B,4 B,4 | D2 D2 [D,D]3 [E,D] | D8 | C4 [B,D]4 | %21
 [A,E]2 [F,D]2 [G,D]2 [C,C]2 | (G,2 z2) z2 C2 x4 | [G,,B,]8 |] %24
V:4
 x8 | x8 | x8 | x8 | x8 | x2 (E,F,) x4 | x8 | x8 | x8 | x8 | x4 A,2 x2 | x8 | x8 | x8 | %14
 D,4 D,4 x2 | x8 | x8 | ^D,2 B,,2 (E,F,) G,2 | x8 | F,2 D,2 (G,A, B,2) | x8 | x8 | D,4 D4 D,4 | %23
 x8 |] %24

